X:69
T:Ffarwel i Langyfelach Lon
M:4/4
L:1/8
Q:180
C:Trad.
R:Slow air
K:G
G | G3 E F3 E | DE F2 E4- | E B BB c B2 A|
G2 A2 B3 E | B3 B A2 GA|
B3 E F3 E | E3 G F3 E |
DE F2 E3 E/2F/2 | G3 E F3 E | DE F2 E3||
